inst/assets/svg/wi-rain.svg

<?xml version="1.0" encoding="UTF-8"?>
<svg xmlns="http://www.w3.org/2000/svg" xmlns:xlink="http://www.w3.org/1999/xlink" width="30pt" height="30pt" viewBox="0 0 30 30" version="1.1">
<g id="surface811">
<path style=" stroke:none;fill-rule:nonzero;fill:rgb(0%,0%,0%);fill-opacity:1;" d="M 4.640625 16.910156 C 4.640625 15.761719 5 14.738281 5.71875 13.839844 C 6.441406 12.941406 7.351563 12.371094 8.449219 12.109375 C 8.761719 10.75 9.46875 9.628906 10.558594 8.75 C 11.648438 7.871094 12.898438 7.441406 14.308594 7.441406 C 15.691406 7.441406 16.910156 7.871094 17.988281 8.71875 C 19.070313 9.570313 19.769531 10.671875 20.089844 12.011719 L 20.410156 12.011719 C 21.300781 12.011719 22.128906 12.230469 22.890625 12.660156 C 23.648438 13.089844 24.261719 13.691406 24.699219 14.441406 C 25.140625 15.191406 25.371094 16.019531 25.371094 16.910156 C 25.371094 17.789063 25.160156 18.601563 24.738281 19.351563 C 24.320313 20.101563 23.738281 20.699219 23.011719 21.148438 C 22.28125 21.601563 21.480469 21.839844 20.609375 21.859375 C 20.480469 21.859375 20.410156 21.800781 20.410156 21.691406 L 20.410156 20.359375 C 20.410156 20.238281 20.480469 20.179688 20.609375 20.179688 C 21.460938 20.140625 22.191406 19.800781 22.789063 19.160156 C 23.390625 18.519531 23.691406 17.769531 23.691406 16.898438 C 23.691406 16.03125 23.359375 15.28125 22.710938 14.640625 C 22.058594 14 21.289063 13.679688 20.398438 13.679688 L 18.789063 13.679688 C 18.671875 13.679688 18.609375 13.621094 18.609375 13.511719 L 18.53125 12.929688 C 18.421875 11.851563 17.949219 10.941406 17.140625 10.21875 C 16.320313 9.488281 15.378906 9.128906 14.289063 9.128906 C 13.199219 9.128906 12.238281 9.488281 11.441406 10.21875 C 10.628906 10.949219 10.179688 11.851563 10.078125 12.929688 L 10.011719 13.460938 C 10.011719 13.578125 9.941406 13.648438 9.808594 13.648438 L 9.28125 13.679688 C 8.449219 13.78125 7.75 14.140625 7.179688 14.75 C 6.609375 15.359375 6.328125 16.078125 6.328125 16.910156 C 6.328125 17.78125 6.628906 18.53125 7.230469 19.171875 C 7.828125 19.808594 8.558594 20.148438 9.410156 20.191406 C 9.519531 20.191406 9.578125 20.25 9.578125 20.371094 L 9.578125 21.699219 C 9.578125 21.808594 9.519531 21.871094 9.410156 21.871094 C 8.070313 21.808594 6.941406 21.300781 6.011719 20.339844 C 5.078125 19.378906 4.640625 18.238281 4.640625 16.910156 Z M 9.988281 23.601563 C 9.988281 23.558594 10 23.488281 10.03125 23.398438 L 11.660156 17.628906 C 11.71875 17.441406 11.828125 17.289063 11.980469 17.191406 C 12.128906 17.089844 12.289063 17.039063 12.441406 17.039063 C 12.511719 17.039063 12.589844 17.050781 12.679688 17.070313 C 12.921875 17.109375 13.101563 17.238281 13.21875 17.441406 C 13.339844 17.640625 13.371094 17.859375 13.300781 18.109375 L 11.671875 23.839844 C 11.550781 24.269531 11.269531 24.480469 10.851563 24.480469 C 10.808594 24.480469 10.78125 24.46875 10.738281 24.460938 C 10.679688 24.441406 10.648438 24.429688 10.640625 24.429688 C 10.421875 24.371094 10.261719 24.261719 10.148438 24.101563 C 10.039063 23.929688 9.988281 23.769531 9.988281 23.601563 Z M 12.609375 26.410156 L 15.050781 17.640625 C 15.089844 17.449219 15.191406 17.300781 15.351563 17.199219 C 15.511719 17.101563 15.671875 17.050781 15.839844 17.050781 C 15.929688 17.050781 16.019531 17.058594 16.109375 17.078125 C 16.328125 17.140625 16.488281 17.269531 16.601563 17.46875 C 16.710938 17.671875 16.730469 17.878906 16.671875 18.109375 L 14.238281 26.890625 C 14.199219 27.058594 14.109375 27.199219 13.949219 27.320313 C 13.789063 27.441406 13.628906 27.5 13.441406 27.5 C 13.351563 27.5 13.261719 27.480469 13.191406 27.449219 C 12.988281 27.398438 12.820313 27.269531 12.671875 27.058594 C 12.558594 26.878906 12.539063 26.671875 12.609375 26.410156 Z M 16.738281 23.621094 C 16.738281 23.578125 16.75 23.511719 16.78125 23.390625 L 18.410156 17.621094 C 18.46875 17.429688 18.570313 17.28125 18.710938 17.179688 C 18.859375 17.078125 19.011719 17.03125 19.171875 17.03125 C 19.25 17.03125 19.339844 17.039063 19.429688 17.058594 C 19.640625 17.121094 19.789063 17.21875 19.890625 17.371094 C 19.988281 17.519531 20.039063 17.679688 20.039063 17.839844 C 20.039063 17.871094 20.03125 17.921875 20.019531 17.980469 C 20.011719 18.039063 20 18.078125 20 18.101563 L 18.371094 23.828125 C 18.328125 24.019531 18.238281 24.179688 18.089844 24.289063 C 17.941406 24.398438 17.769531 24.460938 17.578125 24.460938 L 17.339844 24.410156 C 17.140625 24.351563 16.988281 24.25 16.878906 24.089844 C 16.789063 23.941406 16.738281 23.78125 16.738281 23.621094 Z M 16.738281 23.621094 "/>
</g>
</svg>

<?xml version="1.0" encoding="utf-8"?>
<!-- Generator: Adobe Illustrator 22.0.1, SVG Export Plug-In . SVG Version: 6.00 Build 0)  -->
<svg version="1.1" id="Layer_1" xmlns="http://www.w3.org/2000/svg" xmlns:xlink="http://www.w3.org/1999/xlink" x="0px" y="0px"
	 viewBox="0 0 30 30" style="enable-background:new 0 0 30 30;" xml:space="preserve">
<path d="M4.64,16.91c0-1.15,0.36-2.17,1.08-3.07c0.72-0.9,1.63-1.47,2.73-1.73c0.31-1.36,1.02-2.48,2.11-3.36s2.34-1.31,3.75-1.31
	c1.38,0,2.6,0.43,3.68,1.28c1.08,0.85,1.78,1.95,2.1,3.29h0.32c0.89,0,1.72,0.22,2.48,0.65s1.37,1.03,1.81,1.78
	c0.44,0.75,0.67,1.58,0.67,2.47c0,0.88-0.21,1.69-0.63,2.44c-0.42,0.75-1,1.35-1.73,1.8c-0.73,0.45-1.53,0.69-2.4,0.71
	c-0.13,0-0.2-0.06-0.2-0.17v-1.33c0-0.12,0.07-0.18,0.2-0.18c0.85-0.04,1.58-0.38,2.18-1.02s0.9-1.39,0.9-2.26s-0.33-1.62-0.98-2.26
	s-1.42-0.96-2.31-0.96h-1.61c-0.12,0-0.18-0.06-0.18-0.17l-0.08-0.58c-0.11-1.08-0.58-1.99-1.39-2.71
	c-0.82-0.73-1.76-1.09-2.85-1.09c-1.09,0-2.05,0.36-2.85,1.09c-0.81,0.73-1.26,1.63-1.36,2.71l-0.07,0.53c0,0.12-0.07,0.19-0.2,0.19
	l-0.53,0.03c-0.83,0.1-1.53,0.46-2.1,1.07s-0.85,1.33-0.85,2.16c0,0.87,0.3,1.62,0.9,2.26s1.33,0.98,2.18,1.02
	c0.11,0,0.17,0.06,0.17,0.18v1.33c0,0.11-0.06,0.17-0.17,0.17c-1.34-0.06-2.47-0.57-3.4-1.53S4.64,18.24,4.64,16.91z M9.99,23.6
	c0-0.04,0.01-0.11,0.04-0.2l1.63-5.77c0.06-0.19,0.17-0.34,0.32-0.44c0.15-0.1,0.31-0.15,0.46-0.15c0.07,0,0.15,0.01,0.24,0.03
	c0.24,0.04,0.42,0.17,0.54,0.37c0.12,0.2,0.15,0.42,0.08,0.67l-1.63,5.73c-0.12,0.43-0.4,0.64-0.82,0.64
	c-0.04,0-0.07-0.01-0.11-0.02c-0.06-0.02-0.09-0.03-0.1-0.03c-0.22-0.06-0.38-0.17-0.49-0.33C10.04,23.93,9.99,23.77,9.99,23.6z
	 M12.61,26.41l2.44-8.77c0.04-0.19,0.14-0.34,0.3-0.44c0.16-0.1,0.32-0.15,0.49-0.15c0.09,0,0.18,0.01,0.27,0.03
	c0.22,0.06,0.38,0.19,0.49,0.39c0.11,0.2,0.13,0.41,0.07,0.64l-2.43,8.78c-0.04,0.17-0.13,0.31-0.29,0.43
	c-0.16,0.12-0.32,0.18-0.51,0.18c-0.09,0-0.18-0.02-0.25-0.05c-0.2-0.05-0.37-0.18-0.52-0.39C12.56,26.88,12.54,26.67,12.61,26.41z
	 M16.74,23.62c0-0.04,0.01-0.11,0.04-0.23l1.63-5.77c0.06-0.19,0.16-0.34,0.3-0.44c0.15-0.1,0.3-0.15,0.46-0.15
	c0.08,0,0.17,0.01,0.26,0.03c0.21,0.06,0.36,0.16,0.46,0.31c0.1,0.15,0.15,0.31,0.15,0.47c0,0.03-0.01,0.08-0.02,0.14
	s-0.02,0.1-0.02,0.12l-1.63,5.73c-0.04,0.19-0.13,0.35-0.28,0.46s-0.32,0.17-0.51,0.17l-0.24-0.05c-0.2-0.06-0.35-0.16-0.46-0.32
	C16.79,23.94,16.74,23.78,16.74,23.62z"/>
</svg>
